Source/WebInspectorUI/UserInterface/Images/gtk/SortIndicatorUpArrow.svg

<?xml version="1.0" encoding="UTF-8" standalone="no"?>
<!-- Created with Inkscape (http://www.inkscape.org/) -->

<svg
   xmlns:dc="http://purl.org/dc/elements/1.1/"
   xmlns:cc="http://creativecommons.org/ns#"
   xmlns:rdf="http://www.w3.org/1999/02/22-rdf-syntax-ns#"
   xmlns:svg="http://www.w3.org/2000/svg"
   xmlns="http://www.w3.org/2000/svg"
   xmlns:xlink="http://www.w3.org/1999/xlink"
   version="1.1"
   width="9"
   height="8"
   id="svg2987">
  <defs
     id="defs2989">
    <linearGradient
       x1="31.340973"
       y1="235.03157"
       x2="31.340973"
       y2="224.67633"
       id="linearGradient4884-8-0"
       xlink:href="#linearGradient4022-2-0-9-1"
       gradientUnits="userSpaceOnUse"
       gradientTransform="matrix(-1,0,0,1,63,0)" />
    <linearGradient
       id="linearGradient4022-2-0-9-1">
      <stop
         id="stop4024-2-8-8-2"
         style="stop-color:#555753;stop-opacity:1"
         offset="0" />
      <stop
         id="stop4026-8-3-0-8"
         style="stop-color:#babdb6;stop-opacity:1"
         offset="1" />
    </linearGradient>
    <linearGradient
       x1="31.340973"
       y1="235.03157"
       x2="31.340973"
       y2="224.67633"
       id="linearGradient4884"
       xlink:href="#linearGradient4022-2-0"
       gradientUnits="userSpaceOnUse" />
    <linearGradient
       id="linearGradient4022-2-0">
      <stop
         id="stop4024-2-8"
         style="stop-color:#555753;stop-opacity:1"
         offset="0" />
      <stop
         id="stop4026-8-3"
         style="stop-color:#babdb6;stop-opacity:1"
         offset="1" />
    </linearGradient>
    <linearGradient
       id="linearGradient5066">
      <stop
         id="stop5068"
         style="stop-color:#555753;stop-opacity:1"
         offset="0" />
      <stop
         id="stop5070"
         style="stop-color:#888a85;stop-opacity:1"
         offset="1" />
    </linearGradient>
    <linearGradient
       x1="31.340973"
       y1="235.03157"
       x2="31.340973"
       y2="224.67633"
       id="linearGradient3083"
       xlink:href="#linearGradient4022-2-0"
       gradientUnits="userSpaceOnUse" />
    <linearGradient
       x1="31.340973"
       y1="235.03157"
       x2="31.340973"
       y2="224.67633"
       id="linearGradient3097"
       xlink:href="#linearGradient5066"
       gradientUnits="userSpaceOnUse"
       gradientTransform="translate(-22.424752,-224.73565)" />
    <linearGradient
       x1="31.340973"
       y1="235.03157"
       x2="31.340973"
       y2="224.67633"
       id="linearGradient4884-2"
       xlink:href="#linearGradient4022-2-0-4"
       gradientUnits="userSpaceOnUse" />
    <linearGradient
       id="linearGradient4022-2-0-4">
      <stop
         id="stop4024-2-8-9"
         style="stop-color:#555753;stop-opacity:1"
         offset="0" />
      <stop
         id="stop4026-8-3-3"
         style="stop-color:#babdb6;stop-opacity:1"
         offset="1" />
    </linearGradient>
    <linearGradient
       x1="31.340973"
       y1="235.03157"
       x2="31.340973"
       y2="224.67633"
       id="linearGradient4886"
       xlink:href="#linearGradient5066-5"
       gradientUnits="userSpaceOnUse" />
    <linearGradient
       id="linearGradient5066-5">
      <stop
         id="stop5068-9"
         style="stop-color:#555753;stop-opacity:1"
         offset="0" />
      <stop
         id="stop5070-3"
         style="stop-color:#888a85;stop-opacity:1"
         offset="1" />
    </linearGradient>
    <linearGradient
       x1="31.340973"
       y1="235.03157"
       x2="31.340973"
       y2="224.67633"
       id="linearGradient4884-0-6-8-7"
       xlink:href="#linearGradient4022-2-0-3-3-5-3"
       gradientUnits="userSpaceOnUse"
       gradientTransform="matrix(0,-1,-1,0,258,257)" />
    <linearGradient
       id="linearGradient4022-2-0-3-3-5-3">
      <stop
         id="stop4024-2-8-3-1-6-2"
         style="stop-color:#555753;stop-opacity:1"
         offset="0" />
      <stop
         id="stop4026-8-3-7-4-9-3"
         style="stop-color:#babdb6;stop-opacity:1"
         offset="1" />
    </linearGradient>
    <linearGradient
       x1="31.340973"
       y1="235.03157"
       x2="31.340973"
       y2="224.67633"
       id="linearGradient4886-7-3-4-8"
       xlink:href="#linearGradient5066-0-5-9-0"
       gradientUnits="userSpaceOnUse"
       gradientTransform="matrix(0,-1,-1,0,258,257)" />
    <linearGradient
       id="linearGradient5066-0-5-9-0">
      <stop
         id="stop5068-1-4-8-0"
         style="stop-color:#555753;stop-opacity:1"
         offset="0" />
      <stop
         id="stop5070-1-9-9-9"
         style="stop-color:#888a85;stop-opacity:1"
         offset="1" />
    </linearGradient>
  </defs>
  <metadata
     id="metadata2992">
    <rdf:RDF>
      <cc:Work
         rdf:about="">
        <dc:format>image/svg+xml</dc:format>
        <dc:type
           rdf:resource="http://purl.org/dc/dcmitype/StillImage" />
        <dc:title></dc:title>
        <cc:license
           rdf:resource="http://creativecommons.org/licenses/by-sa/3.0/" />
      </cc:Work>
      <cc:License
         rdf:about="http://creativecommons.org/licenses/by-sa/3.0/">
        <cc:permits
           rdf:resource="http://creativecommons.org/ns#Reproduction" />
        <cc:permits
           rdf:resource="http://creativecommons.org/ns#Distribution" />
        <cc:requires
           rdf:resource="http://creativecommons.org/ns#Notice" />
        <cc:requires
           rdf:resource="http://creativecommons.org/ns#Attribution" />
        <cc:permits
           rdf:resource="http://creativecommons.org/ns#DerivativeWorks" />
        <cc:requires
           rdf:resource="http://creativecommons.org/ns#ShareAlike" />
      </cc:License>
    </rdf:RDF>
  </metadata>
  <path
     d="M 8.9999997,5.4430029 C 8.9735517,5.3319116 8.9135437,5.2290411 8.8298608,5.1513363 L 5.9131941,2.2346696 5.4999997,1.8457807 5.0868053,2.2346696 2.1701386,5.1513363 C 2.0629393,5.2601407 2.0004956,5.4117895 1.9999997,5.5645307 l 0,0.024306 0,0.048611 0,0.5104166 0.4375,0 0.072917,0 c 0.1840811,0.0279 0.3798918,-0.03737 0.5104166,-0.1701389 L 5.5,3.4985585 8.0034722,5.9777251 c 0.1081805,0.1080194 0.260319,0.1706646 0.4131945,0.1701389 l 0.1215277,0 0.4618056,0 0,-0.4618055 0,-0.072917 0,-0.048611 0,-0.072917 z"
     id="path6040"
     style="font-size:medium;font-style:normal;font-variant:normal;font-weight:normal;font-stretch:normal;text-indent:0;text-align:start;text-decoration:none;line-height:normal;letter-spacing:normal;word-spacing:normal;text-transform:none;direction:ltr;block-progression:tb;writing-mode:lr-tb;text-anchor:start;baseline-shift:baseline;color:#000000;fill-opacity:1;stroke:none;stroke-width:2;marker:none;visibility:visible;display:inline;overflow:visible;enable-background:accumulate;font-family:Sans;-inkscape-font-specification:Sans" />
  <path
     d="m -6.8474579,-4.3050847 a 3.2542372,3.2542372 0 1 1 -6.5084741,0 3.2542372,3.2542372 0 1 1 6.5084741,0 z"
     transform="matrix(0.15364584,0,0,0.15364584,2.5520834,1.6614584)"
     id="path8060"
     style="color:#000000;fill-opacity:1;fill-rule:nonzero;stroke:#ffffff;stroke-width:0;stroke-linecap:round;stroke-linejoin:round;stroke-miterlimit:4;stroke-opacity:1;stroke-dasharray:none;stroke-dashoffset:0;marker:none;visibility:visible;display:inline;overflow:visible;enable-background:accumulate" />
  <path
     d="m -6.8474579,-4.3050847 a 3.2542372,3.2542372 0 1 1 -6.5084741,0 3.2542372,3.2542372 0 1 1 6.5084741,0 z"
     transform="matrix(0.15364584,0,0,0.15364584,2.5520834,7.6614584)"
     id="path8060-1"
     style="color:#000000;fill-opacity:1;fill-rule:nonzero;stroke:#ffffff;stroke-width:0;stroke-linecap:round;stroke-linejoin:round;stroke-miterlimit:4;stroke-opacity:1;stroke-dasharray:none;stroke-dashoffset:0;marker:none;visibility:visible;display:inline;overflow:visible;enable-background:accumulate" />
  <path
     d="m -6.8474579,-4.3050847 a 3.2542372,3.2542372 0 1 1 -6.5084741,0 3.2542372,3.2542372 0 1 1 6.5084741,0 z"
     transform="matrix(0.15364584,0,0,0.15364584,2.5520834,5.6614584)"
     id="path8060-7"
     style="color:#000000;fill-opacity:1;fill-rule:nonzero;stroke:#ffffff;stroke-width:0;stroke-linecap:round;stroke-linejoin:round;stroke-miterlimit:4;stroke-opacity:1;stroke-dasharray:none;stroke-dashoffset:0;marker:none;visibility:visible;display:inline;overflow:visible;enable-background:accumulate" />
  <path
     d="m -6.8474579,-4.3050847 a 3.2542372,3.2542372 0 1 1 -6.5084741,0 3.2542372,3.2542372 0 1 1 6.5084741,0 z"
     transform="matrix(0.15364584,0,0,0.15364584,2.5520834,3.6614584)"
     id="path8060-4"
     style="color:#000000;fill-opacity:1;fill-rule:nonzero;stroke:#ffffff;stroke-width:0;stroke-linecap:round;stroke-linejoin:round;stroke-miterlimit:4;stroke-opacity:1;stroke-dasharray:none;stroke-dashoffset:0;marker:none;visibility:visible;display:inline;overflow:visible;enable-background:accumulate" />
</svg>

<?xml version="1.0" encoding="UTF-8"?>
<!-- Licensed under the Creative Commons Attribution-Share Alike 3.0 United States License (http://creativecommons.org/licenses/by-sa/3.0/) -->
<svg xmlns="http://www.w3.org/2000/svg" version="1.1" viewBox="0 0 9 8">
 <path d="m9 5.443c-0.0264-0.1111-0.0865-0.214-0.1701-0.2917l-2.9167-2.9166-0.4132-0.3889-0.4132 0.3889-2.9167 2.9166c-0.1072 0.1088-0.1696 0.2605-0.1701 0.4132v0.024306 0.048611 0.51042h0.4375 0.072917c0.18408 0.0279 0.37989-0.03737 0.51042-0.17014l2.4792-2.4791 2.5035 2.4791c0.10818 0.10802 0.26032 0.17066 0.41319 0.17014h0.12153 0.46181v-0.46181-0.072917-0.048611-0.072917z" class="filled"/>
 <path d="m-6.8475-4.3051a3.2542 3.2542 0 1 1 -6.5085 0 3.2542 3.2542 0 1 1 6.5085 0z" transform="matrix(.15365 0 0 .15365 2.5521 1.6615)" class="filled"/>
 <path d="m-6.8475-4.3051a3.2542 3.2542 0 1 1 -6.5085 0 3.2542 3.2542 0 1 1 6.5085 0z" transform="matrix(.15365 0 0 .15365 2.5521 7.6615)" class="filled"/>
 <path d="m-6.8475-4.3051a3.2542 3.2542 0 1 1 -6.5085 0 3.2542 3.2542 0 1 1 6.5085 0z" transform="matrix(.15365 0 0 .15365 2.5521 5.6615)" class="filled"/>
 <path d="m-6.8475-4.3051a3.2542 3.2542 0 1 1 -6.5085 0 3.2542 3.2542 0 1 1 6.5085 0z" transform="matrix(.15365 0 0 .15365 2.5521 3.6615)" class="filled"/>
</svg>
